pages/zim/img/icon/letter.svg

<svg width="16" height="10" viewBox="0 0 16 10" fill="none" xmlns="http://www.w3.org/2000/svg">
<path d="M8.00824 0.00360881C10.273 0.00360881 12.5377 0.00721761 14.8024 0C15.092 0 15.321 0.0757849 15.5285 0.227355C15.5933 0.274269 15.6538 0.324792 15.7143 0.378925C15.9088 0.555756 16.0126 0.75424 16.0039 1.00686C15.9996 1.15121 15.9521 1.23782 15.8137 1.32804C13.7003 2.69939 11.5912 4.07795 9.47771 5.45291C9.13195 5.67665 8.78619 5.89679 8.44044 6.11693C8.40154 6.14219 8.36264 6.16023 8.32374 6.17828C7.97366 6.36954 7.61926 6.37315 7.27782 6.17106C6.91045 5.95453 6.5474 5.73078 6.193 5.50343C4.43827 4.37748 2.69219 3.24793 0.941787 2.11476C0.652214 1.92349 0.36264 1.73223 0.0730672 1.54096C0.0168813 1.50848 -0.000406634 1.46878 -0.000406634 1.41465C0.00391535 1.24504 0.00391535 1.07542 -0.000406634 0.90581C-0.00472862 0.78672 0.0341693 0.682064 0.103321 0.581018C0.254591 0.375316 0.453402 0.209311 0.699755 0.0866113C0.820771 0.0288704 0.946109 0.00360881 1.08441 0.00360881C3.39235 0.00360881 5.70029 0.00360881 8.00824 0.00360881Z" fill="white"/>
<path d="M9.8844 6.21802C11.5743 7.47388 13.2642 8.72975 14.9714 10C10.2647 10 5.58403 10 0.87738 10C0.911956 9.97117 0.933566 9.95313 0.959498 9.93509C2.5716 8.7514 4.18802 7.56771 5.80013 6.38041C5.86495 6.3335 5.89953 6.34072 5.96868 6.37681C6.31444 6.57529 6.65156 6.7846 7.0146 6.96143C7.54621 7.22487 8.09078 7.20322 8.63103 6.95421C9.04162 6.76656 9.40899 6.52837 9.77635 6.28659C9.80229 6.26854 9.84118 6.24689 9.8844 6.21802Z" fill="white"/>
<path d="M15.9395 9.60303C14.1891 8.30025 12.4387 7.00108 10.6753 5.68748C12.4473 4.53266 14.2107 3.38506 15.9957 2.22302C15.9957 2.73186 15.9957 3.22266 15.9957 3.70985C15.9957 4.20065 15.9957 4.69505 15.9957 5.18585C15.9957 5.67665 15.9957 6.16384 15.9957 6.65464C15.9957 7.14543 15.9957 7.63984 15.9957 8.13064C15.9913 8.61783 16.0043 9.10501 15.987 9.5922C15.9697 9.59942 15.9524 9.60303 15.9395 9.60303Z" fill="white"/>
<path d="M0.00866699 9.49476C0.00866699 7.17791 0.00866699 4.86467 0.00866699 2.53699C1.69424 3.62685 3.37117 4.71671 5.06539 5.81017C3.38414 7.04438 1.70721 8.27499 0.0302769 9.50559C0.0259549 9.50198 0.017311 9.49837 0.00866699 9.49476Z" fill="white"/>
</svg>

<svg width="16" height="10" fill="none" xmlns="http://www.w3.org/2000/svg"><path d="M8.008.004c2.265 0 4.53.003 6.794-.004.29 0 .519.076.726.227.065.047.126.098.186.152.195.177.299.375.29.628-.004.144-.052.23-.19.321-2.114 1.371-4.223 2.75-6.336 4.125-.346.224-.692.444-1.038.664-.038.025-.077.043-.116.061-.35.192-.705.195-1.046-.007a33.78 33.78 0 01-1.085-.668C4.438 4.377 2.693 3.248.942 2.115L.073 1.54A.13.13 0 010 1.415c.004-.17.004-.34 0-.51A.527.527 0 01.103.582C.255.375.453.209.7.087a.87.87 0 01.384-.083h6.924z" fill="#fff"/><path d="M9.884 6.218L14.971 10H.877a1.5 1.5 0 01.082-.065C2.572 8.751 4.188 7.568 5.8 6.38c.065-.046.1-.04.169-.003.345.198.683.408 1.046.584.531.264 1.076.242 1.616-.007.41-.187.778-.426 1.145-.667.026-.018.065-.04.108-.069zm6.056 3.385c-1.75-1.303-3.501-2.602-5.265-3.916l5.32-3.464v5.908c-.004.487.01.974-.008 1.461a.13.13 0 01-.047.011zM.009 9.495V2.537c1.685 1.09 3.362 2.18 5.056 3.273L.03 9.506a.1.1 0 00-.021-.011z" fill="#fff"/></svg>
